svg/pregnant_3638w_negative.svg

<svg width="48" height="48" viewBox="0 0 48 48" fill="none" xmlns="http://www.w3.org/2000/svg">
<path fill-rule="evenodd" clip-rule="evenodd" d="M0 0V47.9994H47.9994V0H0ZM23.9997 4.00975C31.8826 4.00945 38.2735 10.3999 38.2725 18.2826C38.2735 26.1655 31.8826 32.5564 23.9997 32.5564C16.1168 32.5564 9.72588 26.1655 9.72688 18.2826C9.72618 10.3997 16.1168 4.00875 23.9997 4.00975ZM23.9997 5.96873C17.1988 5.96913 11.6859 11.4819 11.6859 18.2826C11.6859 25.0835 17.1988 30.5964 23.9997 30.5974C30.8006 30.5964 36.3135 25.0835 36.3135 18.2826C36.3135 11.4817 30.8006 5.96873 23.9997 5.96873ZM22.9117 6.66982C23.2217 6.66772 23.5177 6.94901 23.3007 7.30851C22.9807 7.8732 22.4857 8.3306 22.3027 9.06039C22.0877 9.89858 23.3457 9.80478 24.6187 10.0329C28.6766 10.7699 26.7837 12.8658 25.9017 12.8958C24.0447 13.1968 21.6977 12.6588 21.3707 16.5678C21.3877 17.5888 21.7837 18.5148 22.0117 19.4818C22.1307 20.4017 21.9987 21.3107 21.4647 22.2007C21.7297 22.1667 21.9717 22.1497 22.3087 22.0657C23.3357 21.7367 23.7417 21.4617 23.4407 20.8827C22.3647 19.6228 23.1497 18.1288 23.7297 17.4898C24.7477 16.4368 25.2717 15.8278 26.2707 15.5018C27.4547 15.1538 28.4746 16.1558 27.8726 17.0098C26.7137 18.3838 25.1757 19.0508 26.1247 20.1017C26.5147 20.3607 26.6517 20.4477 26.9467 20.7597C27.7017 21.9127 27.7487 22.2827 28.0956 23.3007C28.1026 24.0347 28.4886 24.8537 26.4037 26.0077C24.2287 26.6877 22.6157 27.9347 19.8238 27.9996C17.0628 27.7587 14.9558 25.6687 15.5818 23.7577L16.3478 21.5367C16.9118 20.0097 16.3228 19.5318 15.2358 19.5098L13.6678 19.4668C12.3878 19.4388 11.9119 17.2338 13.3998 16.6758C14.8118 16.2068 16.3758 16.5378 18.1388 16.9038C19.0178 17.0598 19.8838 17.6648 20.2377 18.9358C20.5977 20.2457 20.4147 21.0107 20.3707 21.9157C20.4177 22.1277 20.6067 22.2197 20.8627 22.2497C21.3657 21.2007 21.6157 20.2327 21.4647 19.3928C21.0077 18.1108 20.7457 17.1028 20.7947 16.5348C21.1757 12.6518 23.1167 12.6048 25.0037 12.4278C27.2777 12.2228 26.4807 10.8449 24.2677 10.7639C23.5007 10.7669 21.0437 10.6449 21.3477 9.21278C21.5867 8.219 22.1307 7.7253 22.4467 7.02331C22.5337 6.77421 22.7257 6.67112 22.9117 6.66982ZM31.8296 16.5898C32.7296 16.5888 33.6276 16.9288 34.3136 17.6148C35.6876 18.9868 35.6916 21.2157 34.3196 22.5897C32.9476 23.9647 30.7186 23.9697 29.3456 22.5977C27.9716 21.2257 27.9736 18.9958 29.3456 17.6228C30.0316 16.9358 30.9296 16.5918 31.8296 16.5918V16.5898ZM3.99995 33.9996H43.9995V43.9995H3.99995V33.9996ZM7.7265 35.0956C7.26371 35.0956 6.83931 35.1836 6.45302 35.3606C6.07032 35.5386 5.77033 35.7865 5.55463 36.1035C5.34233 36.4165 5.23623 36.7705 5.23623 37.1675H6.74402C6.74402 36.9135 6.84221 36.7085 7.03701 36.5525C7.23191 36.3925 7.47481 36.3115 7.7636 36.3115C8.0837 36.3115 8.33259 36.3975 8.51359 36.5675C8.69799 36.7385 8.79089 36.9765 8.79089 37.2825C8.79089 37.5995 8.69799 37.8535 8.51359 38.0445C8.3292 38.2355 8.0467 38.3315 7.664 38.3315H6.85931V39.5115H7.6581C8.49319 39.5115 8.91009 39.8895 8.91009 40.6475C8.91009 40.9615 8.80869 41.2145 8.60339 41.4055C8.4016 41.5935 8.122 41.6875 7.7636 41.6875C7.45041 41.6875 7.18441 41.5965 6.96871 41.4155C6.75642 41.2345 6.65032 41.0015 6.65032 40.7165H5.14254C5.14254 41.3735 5.38303 41.9025 5.86323 42.3025C6.34682 42.7025 6.96791 42.9035 7.7265 42.9035C8.53719 42.9035 9.18699 42.6995 9.67758 42.2925C10.1719 41.8855 10.4199 41.3445 10.4199 40.6695C10.4199 40.2515 10.3139 39.8895 10.1019 39.5835C9.89268 39.2775 9.57438 39.0475 9.14638 38.8945C9.49088 38.7375 9.76808 38.5145 9.98038 38.2225C10.1929 37.9295 10.2989 37.6095 10.2989 37.2615C10.2989 36.5865 10.0709 36.0585 9.61508 35.6756C9.15929 35.2896 8.53019 35.0956 7.7265 35.0956ZM24.1553 35.0956C23.6923 35.0956 23.2683 35.1836 22.8823 35.3606C22.4993 35.5386 22.1993 35.7865 21.9833 36.1035C21.7713 36.4165 21.6653 36.7705 21.6653 37.1675H23.1753C23.1753 36.9135 23.2713 36.7085 23.4663 36.5525C23.6613 36.3925 23.9043 36.3115 24.1923 36.3115C24.5123 36.3115 24.7633 36.3975 24.9443 36.5675C25.1293 36.7385 25.2203 36.9765 25.2203 37.2825C25.2203 37.5995 25.1293 37.8535 24.9443 38.0445C24.7603 38.2355 24.4753 38.3315 24.0933 38.3315H23.2903V39.5115H24.0873C24.9223 39.5115 25.3413 39.8895 25.3413 40.6475C25.3413 40.9615 25.2373 41.2145 25.0323 41.4055C24.8303 41.5935 24.5513 41.6875 24.1923 41.6875C23.8793 41.6875 23.6153 41.5965 23.3993 41.4155C23.1873 41.2345 23.0813 41.0015 23.0813 40.7165H21.5713C21.5713 41.3735 21.8123 41.9025 22.2923 42.3025C22.7763 42.7025 23.3973 42.9035 24.1553 42.9035C24.9663 42.9035 25.6183 42.6995 26.1083 42.2925C26.6023 41.8855 26.8493 41.3445 26.8493 40.6695C26.8493 40.2515 26.7433 39.8895 26.5303 39.5835C26.3213 39.2775 26.0033 39.0475 25.5753 38.8945C25.9203 38.7375 26.1993 38.5145 26.4113 38.2225C26.6233 37.9295 26.7293 37.6095 26.7293 37.2615C26.7293 36.5865 26.5023 36.0585 26.0463 35.6756C25.5903 35.2896 24.9593 35.0956 24.1553 35.0956ZM30.4402 35.0956C29.6992 35.0956 29.1122 35.2896 28.6812 35.6756C28.2492 36.0585 28.0342 36.5735 28.0342 37.2205C28.0342 37.5895 28.1252 37.9155 28.3062 38.2005C28.4902 38.4855 28.7442 38.7135 29.0672 38.8845C28.7022 39.0585 28.4122 39.3015 28.1962 39.6145C27.9812 39.9275 27.8723 40.2955 27.8723 40.7165C27.8723 41.3875 28.1032 41.9205 28.5652 42.3135C29.0282 42.7075 29.6542 42.9035 30.4442 42.9035C31.2342 42.9035 31.8602 42.7075 32.3192 42.3175C32.7792 41.9245 33.0072 41.3915 33.0072 40.7165C33.0072 40.2955 32.9002 39.9305 32.6852 39.6205C32.4692 39.3075 32.1762 39.0615 31.8082 38.8845C32.1312 38.7135 32.3852 38.4855 32.5692 38.2005C32.7542 37.9155 32.8472 37.5895 32.8472 37.2205C32.8472 36.5665 32.6272 36.0485 32.1922 35.6696C31.7612 35.2866 31.1782 35.0956 30.4402 35.0956ZM15.3044 35.1206C14.5354 35.1246 13.8574 35.2996 13.2724 35.6476C12.6914 35.9925 12.2464 36.4815 11.9335 37.1145C11.6235 37.7445 11.4685 38.4715 11.4685 39.2965V39.8395C11.4685 40.7685 11.7135 41.5115 12.2044 42.0675C12.6984 42.6245 13.3454 42.9035 14.1454 42.9035C14.6404 42.9035 15.0804 42.7925 15.4704 42.5695C15.8634 42.3475 16.1664 42.0345 16.3784 41.6345C16.5944 41.2345 16.7024 40.7885 16.7024 40.2945C16.7024 39.5215 16.5084 38.8985 16.1184 38.4255C15.7284 37.9525 15.2034 37.7145 14.5424 37.7145C13.9264 37.7145 13.4164 37.9205 13.0134 38.3315C13.0964 37.7195 13.3454 37.2405 13.7594 36.8955C14.1764 36.5515 14.7254 36.3735 15.4074 36.3625H15.5544V35.1206H15.3044ZM33.6962 35.1986L35.3822 42.7985H36.9581L38.1961 37.7145L39.4331 42.7985H41.0091L42.6941 35.1986H41.1341L40.1101 40.6065L38.8641 35.1986H37.5381L36.2861 40.5975L35.2572 35.1986H33.6962ZM30.4402 36.3115C30.7262 36.3115 30.9462 36.4025 31.1032 36.5835C31.2592 36.7605 31.3372 36.9965 31.3372 37.2925C31.3372 37.5955 31.2592 37.8385 31.1032 38.0225C30.9492 38.2075 30.7302 38.3005 30.4442 38.3005C30.1592 38.3005 29.9392 38.2075 29.7822 38.0225C29.6262 37.8385 29.5482 37.5955 29.5482 37.2925C29.5482 36.9865 29.6262 36.7455 29.7822 36.5715C29.9392 36.3975 30.1592 36.3115 30.4402 36.3115ZM14.0834 38.9255C14.4244 38.9255 14.6964 39.0545 14.8974 39.3085C15.0994 39.5625 15.2004 39.8955 15.2004 40.3105C15.2004 40.7175 15.0994 41.0485 14.8974 41.3065C14.6994 41.5605 14.4384 41.6875 14.1144 41.6875C13.7564 41.6875 13.4774 41.5465 13.2784 41.2655C13.0804 40.9795 12.9814 40.5845 12.9814 40.0795V39.6205C13.0754 39.4115 13.2214 39.2435 13.4194 39.1185C13.6174 38.9895 13.8394 38.9255 14.0834 38.9255ZM17.6574 38.9375V40.1515H20.5973V38.9375H17.6574ZM30.4352 39.5155C30.7582 39.5155 31.0152 39.6155 31.2062 39.8135C31.3972 40.0125 31.4932 40.2765 31.4932 40.6065C31.4932 40.9445 31.4002 41.2085 31.2122 41.3995C31.0272 41.5915 30.7712 41.6875 30.4442 41.6875C30.1102 41.6875 29.8492 41.5885 29.6612 41.3905C29.4732 41.1915 29.3802 40.9305 29.3802 40.6065C29.3802 40.2725 29.4762 40.0085 29.6672 39.8135C29.8582 39.6155 30.1142 39.5155 30.4352 39.5155Z" fill="#333333"/>
</svg>

<?xml version="1.0" encoding="UTF-8" standalone="no"?>
<!-- Created with Inkscape (http://www.inkscape.org/) -->
<svg id="svg8" xmlns:rdf="http://www.w3.org/1999/02/22-rdf-syntax-ns#" xmlns="http://www.w3.org/2000/svg" xmlns:osb="http://www.openswatchbook.org/uri/2009/osb" height="48" width="48" version="1.1" xmlns:cc="http://creativecommons.org/ns#" viewBox="0 0 12.7 12.7" xmlns:dc="http://purl.org/dc/elements/1.1/">
 <title id="title4753">UIO-icon</title>
 <metadata id="metadata5">
  <rdf:RDF>
   <cc:Work rdf:about="">
    <dc:format>image/svg+xml</dc:format>
    <dc:type rdf:resource="http://purl.org/dc/dcmitype/StillImage"/>
    <dc:title>UIO-icon</dc:title>
    <dc:creator>
     <cc:Agent>
      <dc:title>Joaquín Urbano</dc:title>
     </cc:Agent>
    </dc:creator>
    <dc:rights>
     <cc:Agent>
      <dc:title>GPL</dc:title>
     </cc:Agent>
    </dc:rights>
   </cc:Work>
  </rdf:RDF>
 </metadata>
 <g id="layer1" transform="translate(0,-284.3)">
  <path id="rect5152" d="m0 0v48h48v-48h-48zm24 4.0098c7.883-0.0003 14.274 6.3902 14.273 14.273 0.001 7.883-6.39 14.274-14.273 14.274s-14.274-6.391-14.273-14.274c-0.0007-7.883 6.39-14.274 14.273-14.273zm0 1.959c-6.801 0.0004-12.314 5.5132-12.314 12.314 0 6.801 5.513 12.314 12.314 12.315 6.801-0.001 12.314-5.514 12.314-12.315s-5.513-12.314-12.314-12.314zm-1.088 0.7011c0.31-0.0021 0.606 0.2792 0.389 0.6387-0.32 0.5647-0.815 1.0221-0.998 1.7519-0.215 0.8382 1.043 0.7444 2.316 0.9725 4.058 0.737 2.165 2.833 1.283 2.863-1.857 0.301-4.204-0.237-4.531 3.672 0.017 1.021 0.413 1.947 0.641 2.914 0.119 0.92-0.013 1.829-0.547 2.719 0.265-0.034 0.507-0.051 0.844-0.135 1.027-0.329 1.433-0.604 1.132-1.183-1.076-1.26-0.291-2.754 0.289-3.393 1.018-1.053 1.542-1.662 2.541-1.988 1.184-0.348 2.204 0.654 1.602 1.508-1.159 1.374-2.697 2.041-1.748 3.092 0.39 0.259 0.527 0.346 0.822 0.658 0.755 1.153 0.802 1.523 1.149 2.541 0.007 0.734 0.393 1.553-1.692 2.707-2.175 0.68-3.788 1.927-6.58 1.992-2.761-0.241-4.868-2.331-4.242-4.242l0.766-2.221c0.564-1.527-0.025-2.005-1.112-2.027l-1.568-0.043c-1.28-0.028-1.756-2.233-0.268-2.791 1.412-0.469 2.976-0.138 4.739 0.228 0.879 0.156 1.745 0.761 2.099 2.032 0.36 1.31 0.177 2.075 0.133 2.98 0.047 0.212 0.236 0.304 0.492 0.334 0.503-1.049 0.753-2.017 0.602-2.857-0.457-1.282-0.719-2.29-0.67-2.858 0.381-3.883 2.322-3.93 4.209-4.107 2.274-0.205 1.477-1.583-0.736-1.664-0.767 0.003-3.224-0.119-2.92-1.5511 0.239-0.9938 0.783-1.4875 1.099-2.1895 0.087-0.2491 0.279-0.3522 0.465-0.3535zm8.918 9.9201c0.9-0.001 1.798 0.339 2.484 1.025 1.374 1.372 1.378 3.601 0.006 4.975-1.372 1.375-3.601 1.38-4.974 0.008-1.374-1.372-1.372-3.602 0-4.975 0.686-0.687 1.584-1.031 2.484-1.031v-0.002zm-27.83 17.41h40v10h-40v-10zm3.7266 1.096c-0.4628 0-0.8872 0.088-1.2735 0.265-0.3827 0.178-0.6827 0.426-0.8984 0.743-0.2123 0.313-0.3184 0.667-0.3184 1.064h1.5078c0-0.254 0.0982-0.459 0.293-0.615 0.1949-0.16 0.4378-0.241 0.7266-0.241 0.3201 0 0.569 0.086 0.75 0.256 0.1844 0.171 0.2773 0.409 0.2773 0.715 0 0.317-0.0929 0.571-0.2773 0.762s-0.4669 0.287-0.8496 0.287h-0.8047v1.18h0.7988c0.8351 0 1.252 0.378 1.252 1.136 0 0.314-0.1014 0.567-0.3067 0.758-0.2018 0.188-0.4814 0.282-0.8398 0.282-0.3132 0-0.5792-0.091-0.7949-0.272-0.2123-0.181-0.3184-0.414-0.3184-0.699h-1.5078c0 0.657 0.2405 1.186 0.7207 1.586 0.4836 0.4 1.1047 0.601 1.8633 0.601 0.8107 0 1.4605-0.204 1.9511-0.611 0.4943-0.407 0.7423-0.948 0.7423-1.623 0-0.418-0.106-0.78-0.318-1.086-0.2092-0.306-0.5275-0.536-0.9555-0.689 0.3445-0.157 0.6217-0.38 0.834-0.672 0.2125-0.293 0.3185-0.613 0.3185-0.961 0-0.675-0.228-1.203-0.6838-1.586-0.4558-0.386-1.0849-0.58-1.8886-0.58zm16.429 0c-0.463 0-0.887 0.088-1.273 0.265-0.383 0.178-0.683 0.426-0.899 0.743-0.212 0.313-0.318 0.667-0.318 1.064h1.51c0-0.254 0.096-0.459 0.291-0.615 0.195-0.16 0.438-0.241 0.726-0.241 0.32 0 0.571 0.086 0.752 0.256 0.185 0.171 0.276 0.409 0.276 0.715 0 0.317-0.091 0.571-0.276 0.762-0.184 0.191-0.469 0.287-0.851 0.287h-0.803v1.18h0.797c0.835 0 1.254 0.378 1.254 1.136 0 0.314-0.104 0.567-0.309 0.758-0.202 0.188-0.481 0.282-0.84 0.282-0.313 0-0.577-0.091-0.793-0.272-0.212-0.181-0.318-0.414-0.318-0.699h-1.51c0 0.657 0.241 1.186 0.721 1.586 0.484 0.4 1.105 0.601 1.863 0.601 0.811 0 1.463-0.204 1.953-0.611 0.494-0.407 0.741-0.948 0.741-1.623 0-0.418-0.106-0.78-0.319-1.086-0.209-0.306-0.527-0.536-0.955-0.689 0.345-0.157 0.624-0.38 0.836-0.672 0.212-0.293 0.318-0.613 0.318-0.961 0-0.675-0.227-1.203-0.683-1.586-0.456-0.386-1.087-0.58-1.891-0.58zm6.285 0c-0.741 0-1.328 0.194-1.759 0.58-0.432 0.383-0.647 0.898-0.647 1.545 0 0.369 0.091 0.695 0.272 0.98 0.184 0.285 0.438 0.513 0.761 0.684-0.365 0.174-0.655 0.417-0.871 0.73-0.215 0.313-0.324 0.681-0.324 1.102 0 0.671 0.231 1.204 0.693 1.597 0.463 0.394 1.089 0.59 1.879 0.59s1.416-0.196 1.875-0.586c0.46-0.393 0.688-0.926 0.688-1.601 0-0.421-0.107-0.786-0.322-1.096-0.216-0.313-0.509-0.559-0.877-0.736 0.323-0.171 0.577-0.399 0.761-0.684 0.185-0.285 0.278-0.611 0.278-0.98 0-0.654-0.22-1.172-0.655-1.551-0.431-0.383-1.014-0.574-1.752-0.574zm-15.136 0.025c-0.769 0.004-1.447 0.179-2.032 0.527-0.581 0.345-1.026 0.834-1.339 1.467-0.31 0.63-0.465 1.357-0.465 2.182v0.543c0 0.929 0.245 1.672 0.736 2.228 0.494 0.557 1.141 0.836 1.941 0.836 0.495 0 0.935-0.111 1.325-0.334 0.393-0.222 0.696-0.535 0.908-0.935 0.216-0.4 0.324-0.846 0.324-1.34 0-0.773-0.194-1.396-0.584-1.869s-0.915-0.711-1.576-0.711c-0.616 0-1.126 0.206-1.529 0.617 0.083-0.612 0.332-1.091 0.746-1.436 0.417-0.344 0.966-0.522 1.648-0.533h0.147v-1.242h-0.25zm18.392 0.078l1.686 7.6h1.576l1.238-5.084 1.237 5.084h1.576l1.685-7.6h-1.56l-1.024 5.408-1.246-5.408h-1.326l-1.252 5.399-1.029-5.399h-1.561zm-3.256 1.113c0.286 0 0.506 0.091 0.663 0.272 0.156 0.177 0.234 0.413 0.234 0.709 0 0.303-0.078 0.546-0.234 0.73-0.154 0.185-0.373 0.278-0.659 0.278-0.285 0-0.505-0.093-0.662-0.278-0.156-0.184-0.234-0.427-0.234-0.73 0-0.306 0.078-0.547 0.234-0.721 0.157-0.174 0.377-0.26 0.658-0.26zm-16.357 2.614c0.341 0 0.613 0.129 0.814 0.383 0.202 0.254 0.303 0.587 0.303 1.002 0 0.407-0.101 0.738-0.303 0.996-0.198 0.254-0.459 0.381-0.783 0.381-0.358 0-0.637-0.141-0.836-0.422-0.198-0.286-0.297-0.681-0.297-1.186v-0.459c0.094-0.209 0.24-0.377 0.438-0.502 0.198-0.129 0.42-0.193 0.664-0.193zm3.574 0.012v1.214h2.94v-1.214h-2.94zm12.778 0.578c0.323 0 0.58 0.1 0.771 0.298 0.191 0.199 0.287 0.463 0.287 0.793 0 0.338-0.093 0.602-0.281 0.793-0.185 0.192-0.441 0.288-0.768 0.288-0.334 0-0.595-0.099-0.783-0.297-0.188-0.199-0.281-0.46-0.281-0.784 0-0.334 0.096-0.598 0.287-0.793 0.191-0.198 0.447-0.298 0.768-0.298z" fill-rule="evenodd" transform="matrix(.26458 0 0 .26458 0 284.3)" fill="#333"/>
 </g>
</svg>
